X: 33294
T: Put Me In The Big Chest
R: reel
M: 4/4
K: Amajor
|:E|EFAB c2 Bc|dBcA F<F F2|EFAB c2 Bc|1 ecac A<A A:|2 ecac A<A A2||
ceea ecAc|dBcA F<F F2|cdea ecAc|dBec A<A A2|
ceea ecAc|dBcA F<F F2|EFAB d2 df|ecac AA A||
|:EFAB c<c c2|cBce f<f f2|EFAB c2 ca|1 ecBc AA A2:|2 ecBc AA Af||
eAec eAAf|eAec cBBf|eAec ecca|ecBc AAAf|
eAec eAAf|eAec cBBc|eAce fgaf|ecBc A<A A2||

